TH1/docu_draw_e34.svg

<svg xmlns="http://www.w3.org/2000/svg" viewBox="0 0 1200 800" preserveAspectRatio="none" width="1200" height="800">
 <title>
  ROOT canvas
 </title>
 <rect x="0" y="0" width="1200" height="800" style="fill: white;"></rect>
 <g>
  <svg viewBox="0 0 576 784" preserveAspectRatio="none" x="12" y="8" width="576" height="784">
   <rect x="0" y="0" width="576" height="784" style="fill: white;"></rect>
   <g>
    <g transform="translate(58,78)">
     <title></title>
     <rect x="0" y="0" width="461" height="627" style="fill: white; stroke: black; stroke-width: 1;"></rect>
     <svg x="0" y="0" overflow="hidden" width="461" height="627" viewBox="0 0 461 627">
      <g>
       <path d="M-77,439c3.18,4.11,35.64,71.27,51,66s36.53,-97.88,52,-103s34.96,-3.07,51,-7s48.54,-67.02,51,-73s48.37,-168.82,51,-175s44.49,-57.48,52,-66s48.66,-56.86,51,-51s41.9,297.52,51,306s46.42,-203.46,51,-211s42.83,51.57,51,43s51.1,-150.36,52,-153L487,237c-1.01,2.78,-43.18,134.42,-52,143s-45.95,-48.77,-51,-41s-41.25,206.41,-51,198s-48.38,-279.86,-51,-286s-42.89,38.43,-51,47s-49.07,55.54,-52,62s-48.25,157.74,-51,164s-34.98,64.05,-51,68s-35.52,1.9,-51,7s-36.39,90.08,-52,95s-47.5,-56.82,-51,-61Z" style="stroke: none; fill: red;"></path>
      </g>
     </svg>
     <g>
      <g transform="translate(0,627)">
       <line x1="0" y1="0" x2="461" y2="0" style="stroke: black; stroke-width: 1;"></line>
       <path d="M0,-12v12m17,-12v12m17,-12v12m17,-24v24m17,-12v12m17,-12v12m17,-12v12m18,-12v12m17,-24v24m17,-12v12m17,-12v12m17,-12v12m17,-12v12m17,-24v24m17,-12v12m17,-12v12m17,-12v12m17,-12v12m17,-24v24m17,-12v12m17,-12v12m18,-12v12m17,-12v12m17,-24v24m17,-12v12m17,-12v12m17,-12v12m17,-12v12" style="stroke: black; stroke-width: 1;"></path>
       <g font-family="Arial" font-size="20" space="preserve">
        <text fill="black" text-anchor="middle" dy=".8em" transform="translate(51,5)">
         -0.6
        </text>
        <text fill="black" text-anchor="middle" dy=".8em" transform="translate(137,5)">
         -0.5
        </text>
        <text fill="black" text-anchor="middle" dy=".8em" transform="translate(222,5)">
         -0.4
        </text>
        <text fill="black" text-anchor="middle" dy=".8em" transform="translate(307,5)">
         -0.3
        </text>
        <text fill="black" text-anchor="middle" dy=".8em" transform="translate(393,5)">
         -0.2
        </text>
       </g>
      </g>
      <g>
       <line x1="0" y1="0" x2="0" y2="627" style="stroke: black; stroke-width: 1;"></line>
       <path d="M9,621h-9m9,-15h-9m17,-14h-17m9,-14h-9m9,-14h-9m9,-14h-9m9,-14h-9m17,-14h-17m9,-15h-9m9,-14h-9m9,-14h-9m9,-14h-9m17,-14h-17m9,-14h-9m9,-14h-9m9,-14h-9m9,-15h-9m17,-14h-17m9,-14h-9m9,-14h-9m9,-14h-9m9,-14h-9m17,-14h-17m9,-14h-9m9,-15h-9m9,-14h-9m9,-14h-9m17,-14h-17m9,-14h-9m9,-14h-9m9,-14h-9m9,-14h-9m17,-15h-17m9,-14h-9m9,-14h-9m9,-14h-9m9,-14h-9m17,-14h-17m9,-14h-9m9,-14h-9m9,-15h-9m9,-14h-9m17,-14h-17m9,-14h-9" style="stroke: black; stroke-width: 1;"></path>
       <g font-family="Arial" font-size="20" space="preserve">
        <text fill="black" text-anchor="end" dy=".4em" transform="translate(-3,592)">
         180
        </text>
        <text fill="black" text-anchor="end" dy=".4em" transform="translate(-3,522)">
         190
        </text>
        <text fill="black" text-anchor="end" dy=".4em" transform="translate(-3,451)">
         200
        </text>
        <text fill="black" text-anchor="end" dy=".4em" transform="translate(-3,380)">
         210
        </text>
        <text fill="black" text-anchor="end" dy=".4em" transform="translate(-3,310)">
         220
        </text>
        <text fill="black" text-anchor="end" dy=".4em" transform="translate(-3,239)">
         230
        </text>
        <text fill="black" text-anchor="end" dy=".4em" transform="translate(-3,168)">
         240
        </text>
        <text fill="black" text-anchor="end" dy=".4em" transform="translate(-3,98)">
         250
        </text>
        <text fill="black" text-anchor="end" dy=".4em" transform="translate(-3,27)">
         260
        </text>
       </g>
      </g>
     </g>
    </g>
    <g transform="translate(86,4)" font-family="Arial" font-size="21" space="preserve">
     <path d="M0,0h403v43h-403z" style="fill: none;"></path>
     <text fill="black" text-anchor="middle" dy=".4em" transform="translate(202,22)">
      Distribution drawn with option E4
     </text>
    </g>
    <g transform="translate(449,51)" font-family="Arial" font-size="12" space="preserve">
     <path d="M0,0h115v125h-115z" style="fill: white; stroke: black; stroke-width: 1;"></path>
     <text fill="black" text-anchor="middle" dy=".4em" transform="translate(58,16)">
      he4
     </text>
     <text fill="black" text-anchor="start" dy=".4em" transform="translate(6,47)">
      Entries
     </text>
     <text fill="black" text-anchor="end" dy=".4em" transform="translate(109,47)">
      10000
     </text>
     <text fill="black" text-anchor="start" dy=".4em" transform="translate(6,78)">
      Mean
     </text>
     <text fill="black" text-anchor="end" dy=".4em" transform="translate(109,78)">
      -0.4081
     </text>
     <text fill="black" text-anchor="start" dy=".4em" transform="translate(6,109)">
      Std Dev
     </text>
     <text fill="black" text-anchor="end" dy=".4em" transform="translate(109,109)">
      0.1687
     </text>
     <path d="M0,31h115" style="stroke: black; stroke-width: 1;"></path>
    </g>
   </g>
  </svg>
  <svg viewBox="0 0 576 784" preserveAspectRatio="none" x="612" y="8" width="576" height="784">
   <rect x="0" y="0" width="576" height="784" style="fill: white;"></rect>
   <g>
    <g transform="translate(58,78)">
     <title></title>
     <rect x="0" y="0" width="461" height="627" style="fill: white; stroke: black; stroke-width: 1;"></rect>
     <svg x="0" y="0" overflow="hidden" width="461" height="627" viewBox="0 0 461 627">
      <g>
       <path d="M-77,439l51,66l52,-103l51,-7l51,-73l51,-175l52,-66l51,-51l51,306l51,-211l51,43l52,-153L487,237l-52,143l-51,-41l-51,198l-51,-286l-51,47l-52,62l-51,164l-51,68l-51,7l-52,95l-51,-61Z" style="stroke: none; fill: red;"></path>
      </g>
     </svg>
     <g>
      <g transform="translate(0,627)">
       <line x1="0" y1="0" x2="461" y2="0" style="stroke: black; stroke-width: 1;"></line>
       <path d="M0,-12v12m17,-12v12m17,-12v12m17,-24v24m17,-12v12m17,-12v12m17,-12v12m18,-12v12m17,-24v24m17,-12v12m17,-12v12m17,-12v12m17,-12v12m17,-24v24m17,-12v12m17,-12v12m17,-12v12m17,-12v12m17,-24v24m17,-12v12m17,-12v12m18,-12v12m17,-12v12m17,-24v24m17,-12v12m17,-12v12m17,-12v12m17,-12v12" style="stroke: black; stroke-width: 1;"></path>
       <g font-family="Arial" font-size="20" space="preserve">
        <text fill="black" text-anchor="middle" dy=".8em" transform="translate(51,5)">
         -0.6
        </text>
        <text fill="black" text-anchor="middle" dy=".8em" transform="translate(137,5)">
         -0.5
        </text>
        <text fill="black" text-anchor="middle" dy=".8em" transform="translate(222,5)">
         -0.4
        </text>
        <text fill="black" text-anchor="middle" dy=".8em" transform="translate(307,5)">
         -0.3
        </text>
        <text fill="black" text-anchor="middle" dy=".8em" transform="translate(393,5)">
         -0.2
        </text>
       </g>
      </g>
      <g>
       <line x1="0" y1="0" x2="0" y2="627" style="stroke: black; stroke-width: 1;"></line>
       <path d="M9,621h-9m9,-15h-9m17,-14h-17m9,-14h-9m9,-14h-9m9,-14h-9m9,-14h-9m17,-14h-17m9,-15h-9m9,-14h-9m9,-14h-9m9,-14h-9m17,-14h-17m9,-14h-9m9,-14h-9m9,-14h-9m9,-15h-9m17,-14h-17m9,-14h-9m9,-14h-9m9,-14h-9m9,-14h-9m17,-14h-17m9,-14h-9m9,-15h-9m9,-14h-9m9,-14h-9m17,-14h-17m9,-14h-9m9,-14h-9m9,-14h-9m9,-14h-9m17,-15h-17m9,-14h-9m9,-14h-9m9,-14h-9m9,-14h-9m17,-14h-17m9,-14h-9m9,-14h-9m9,-15h-9m9,-14h-9m17,-14h-17m9,-14h-9" style="stroke: black; stroke-width: 1;"></path>
       <g font-family="Arial" font-size="20" space="preserve">
        <text fill="black" text-anchor="end" dy=".4em" transform="translate(-3,592)">
         180
        </text>
        <text fill="black" text-anchor="end" dy=".4em" transform="translate(-3,522)">
         190
        </text>
        <text fill="black" text-anchor="end" dy=".4em" transform="translate(-3,451)">
         200
        </text>
        <text fill="black" text-anchor="end" dy=".4em" transform="translate(-3,380)">
         210
        </text>
        <text fill="black" text-anchor="end" dy=".4em" transform="translate(-3,310)">
         220
        </text>
        <text fill="black" text-anchor="end" dy=".4em" transform="translate(-3,239)">
         230
        </text>
        <text fill="black" text-anchor="end" dy=".4em" transform="translate(-3,168)">
         240
        </text>
        <text fill="black" text-anchor="end" dy=".4em" transform="translate(-3,98)">
         250
        </text>
        <text fill="black" text-anchor="end" dy=".4em" transform="translate(-3,27)">
         260
        </text>
       </g>
      </g>
     </g>
    </g>
    <g transform="translate(86,4)" font-family="Arial" font-size="25" space="preserve">
     <path d="M0,0h403v43h-403z" style="fill: none;"></path>
     <text fill="black" text-anchor="middle" dy=".4em" transform="translate(202,22)">
      Distribution drawn option E3
     </text>
    </g>
    <g transform="translate(449,51)" font-family="Arial" font-size="12" space="preserve">
     <path d="M0,0h115v125h-115z" style="fill: white; stroke: black; stroke-width: 1;"></path>
     <text fill="black" text-anchor="middle" dy=".4em" transform="translate(58,16)">
      he4
     </text>
     <text fill="black" text-anchor="start" dy=".4em" transform="translate(6,47)">
      Entries
     </text>
     <text fill="black" text-anchor="end" dy=".4em" transform="translate(109,47)">
      10000
     </text>
     <text fill="black" text-anchor="start" dy=".4em" transform="translate(6,78)">
      Mean
     </text>
     <text fill="black" text-anchor="end" dy=".4em" transform="translate(109,78)">
      -0.4081
     </text>
     <text fill="black" text-anchor="start" dy=".4em" transform="translate(6,109)">
      Std Dev
     </text>
     <text fill="black" text-anchor="end" dy=".4em" transform="translate(109,109)">
      0.1687
     </text>
     <path d="M0,31h115" style="stroke: black; stroke-width: 1;"></path>
    </g>
   </g>
  </svg>
 </g>
</svg>

<svg xmlns="http://www.w3.org/2000/svg" viewBox="0 0 1200 800" preserveAspectRatio="none" width="1200" height="800">
 <title>
  ROOT canvas
 </title>
 <rect x="0" y="0" width="1200" height="800" style="fill: white;"></rect>
 <g>
  <svg viewBox="0 0 576 784" preserveAspectRatio="none" x="12" y="8" width="576" height="784">
   <rect x="0" y="0" width="576" height="784" style="fill: white;"></rect>
   <g>
    <g transform="translate(58,78)">
     <title></title>
     <rect x="0" y="0" width="461" height="627" style="fill: white; stroke: black; stroke-width: 1;"></rect>
     <svg x="0" y="0" overflow="hidden" width="461" height="627" viewBox="0 0 461 627">
      <g>
       <path d="M-77,439C-73.82,443.11,-41.36,510.27,-26,505S10.53,407.12,26,402S60.96,398.93,77,395S125.54,327.98,128,322S176.37,153.18,179,147S223.49,89.52,231,81S279.66,24.14,282,30S323.9,327.52,333,336S379.42,132.54,384,125S426.83,176.57,435,168S486.1,17.64,487,15L487,237C485.99,239.78,443.82,371.42,435,380S389.05,331.23,384,339S342.75,545.41,333,537S284.62,257.14,282,251S239.11,289.43,231,298S181.93,353.54,179,360S130.75,517.74,128,524S93.02,588.05,77,592S41.48,593.9,26,599S-10.39,689.08,-26,694S-73.5,637.18,-77,633Z" style="stroke: none; fill: red;"></path>
      </g>
     </svg>
     <g>
      <g transform="translate(0,627)">
       <line x1="0" y1="0" x2="461" y2="0" style="stroke: black; stroke-width: 1;"></line>
       <path d="M0,-12v12m17,-12v12m17,-12v12m17,-24v24m17,-12v12m17,-12v12m17,-12v12m18,-12v12m17,-24v24m17,-12v12m17,-12v12m17,-12v12m17,-12v12m17,-24v24m17,-12v12m17,-12v12m17,-12v12m17,-12v12m17,-24v24m17,-12v12m17,-12v12m18,-12v12m17,-12v12m17,-24v24m17,-12v12m17,-12v12m17,-12v12m17,-12v12" style="stroke: black; stroke-width: 1;"></path>
       <g font-family="Arial" font-size="20" space="preserve">
        <text fill="black" text-anchor="middle" dy=".8em" transform="translate(51,5)">
         -0.6
        </text>
        <text fill="black" text-anchor="middle" dy=".8em" transform="translate(137,5)">
         -0.5
        </text>
        <text fill="black" text-anchor="middle" dy=".8em" transform="translate(222,5)">
         -0.4
        </text>
        <text fill="black" text-anchor="middle" dy=".8em" transform="translate(307,5)">
         -0.3
        </text>
        <text fill="black" text-anchor="middle" dy=".8em" transform="translate(393,5)">
         -0.2
        </text>
       </g>
      </g>
      <g>
       <line x1="0" y1="0" x2="0" y2="627" style="stroke: black; stroke-width: 1;"></line>
       <path d="M9,621h-9m9,-15h-9m17,-14h-17m9,-14h-9m9,-14h-9m9,-14h-9m9,-14h-9m17,-14h-17m9,-15h-9m9,-14h-9m9,-14h-9m9,-14h-9m17,-14h-17m9,-14h-9m9,-14h-9m9,-14h-9m9,-15h-9m17,-14h-17m9,-14h-9m9,-14h-9m9,-14h-9m9,-14h-9m17,-14h-17m9,-14h-9m9,-15h-9m9,-14h-9m9,-14h-9m17,-14h-17m9,-14h-9m9,-14h-9m9,-14h-9m9,-14h-9m17,-15h-17m9,-14h-9m9,-14h-9m9,-14h-9m9,-14h-9m17,-14h-17m9,-14h-9m9,-14h-9m9,-15h-9m9,-14h-9m17,-14h-17m9,-14h-9" style="stroke: black; stroke-width: 1;"></path>
       <g font-family="Arial" font-size="20" space="preserve">
        <text fill="black" text-anchor="end" dy=".4em" transform="translate(-3,592)">
         180
        </text>
        <text fill="black" text-anchor="end" dy=".4em" transform="translate(-3,522)">
         190
        </text>
        <text fill="black" text-anchor="end" dy=".4em" transform="translate(-3,451)">
         200
        </text>
        <text fill="black" text-anchor="end" dy=".4em" transform="translate(-3,380)">
         210
        </text>
        <text fill="black" text-anchor="end" dy=".4em" transform="translate(-3,310)">
         220
        </text>
        <text fill="black" text-anchor="end" dy=".4em" transform="translate(-3,239)">
         230
        </text>
        <text fill="black" text-anchor="end" dy=".4em" transform="translate(-3,168)">
         240
        </text>
        <text fill="black" text-anchor="end" dy=".4em" transform="translate(-3,98)">
         250
        </text>
        <text fill="black" text-anchor="end" dy=".4em" transform="translate(-3,27)">
         260
        </text>
       </g>
      </g>
     </g>
    </g>
    <g transform="translate(86,4)" font-family="Arial" font-size="21" space="preserve">
     <path d="M0,0h403v43h-403z" style="fill: none;"></path>
     <text fill="black" text-anchor="middle" dy=".4em" transform="translate(202,22)">
      Distribution drawn with option E4
     </text>
    </g>
    <g transform="translate(449,51)" font-family="Arial" font-size="12" space="preserve">
     <path d="M0,0h115v125h-115z" style="fill: white; stroke: black; stroke-width: 1;"></path>
     <text fill="black" text-anchor="middle" dy=".4em" transform="translate(58,16)">
      he4
     </text>
     <text fill="black" text-anchor="start" dy=".4em" transform="translate(6,47)">
      Entries
     </text>
     <text fill="black" text-anchor="end" dy=".4em" transform="translate(109,47)">
      10000
     </text>
     <text fill="black" text-anchor="start" dy=".4em" transform="translate(6,78)">
      Mean
     </text>
     <text fill="black" text-anchor="end" dy=".4em" transform="translate(109,78)">
      -0.4081
     </text>
     <text fill="black" text-anchor="start" dy=".4em" transform="translate(6,109)">
      Std Dev
     </text>
     <text fill="black" text-anchor="end" dy=".4em" transform="translate(109,109)">
      0.1687
     </text>
     <path d="M0,31h115" style="stroke: black; stroke-width: 1;"></path>
    </g>
   </g>
  </svg>
  <svg viewBox="0 0 576 784" preserveAspectRatio="none" x="612" y="8" width="576" height="784">
   <rect x="0" y="0" width="576" height="784" style="fill: white;"></rect>
   <g>
    <g transform="translate(58,78)">
     <title></title>
     <rect x="0" y="0" width="461" height="627" style="fill: white; stroke: black; stroke-width: 1;"></rect>
     <svg x="0" y="0" overflow="hidden" width="461" height="627" viewBox="0 0 461 627">
      <g>
       <path d="M-77,439l51,66l52,-103l51,-7l51,-73l51,-175l52,-66l51,-51l51,306l51,-211l51,43l52,-153L487,237l-52,143l-51,-41l-51,198l-51,-286l-51,47l-52,62l-51,164l-51,68l-51,7l-52,95l-51,-61Z" style="stroke: none; fill: red;"></path>
      </g>
     </svg>
     <g>
      <g transform="translate(0,627)">
       <line x1="0" y1="0" x2="461" y2="0" style="stroke: black; stroke-width: 1;"></line>
       <path d="M0,-12v12m17,-12v12m17,-12v12m17,-24v24m17,-12v12m17,-12v12m17,-12v12m18,-12v12m17,-24v24m17,-12v12m17,-12v12m17,-12v12m17,-12v12m17,-24v24m17,-12v12m17,-12v12m17,-12v12m17,-12v12m17,-24v24m17,-12v12m17,-12v12m18,-12v12m17,-12v12m17,-24v24m17,-12v12m17,-12v12m17,-12v12m17,-12v12" style="stroke: black; stroke-width: 1;"></path>
       <g font-family="Arial" font-size="20" space="preserve">
        <text fill="black" text-anchor="middle" dy=".8em" transform="translate(51,5)">
         -0.6
        </text>
        <text fill="black" text-anchor="middle" dy=".8em" transform="translate(137,5)">
         -0.5
        </text>
        <text fill="black" text-anchor="middle" dy=".8em" transform="translate(222,5)">
         -0.4
        </text>
        <text fill="black" text-anchor="middle" dy=".8em" transform="translate(307,5)">
         -0.3
        </text>
        <text fill="black" text-anchor="middle" dy=".8em" transform="translate(393,5)">
         -0.2
        </text>
       </g>
      </g>
      <g>
       <line x1="0" y1="0" x2="0" y2="627" style="stroke: black; stroke-width: 1;"></line>
       <path d="M9,621h-9m9,-15h-9m17,-14h-17m9,-14h-9m9,-14h-9m9,-14h-9m9,-14h-9m17,-14h-17m9,-15h-9m9,-14h-9m9,-14h-9m9,-14h-9m17,-14h-17m9,-14h-9m9,-14h-9m9,-14h-9m9,-15h-9m17,-14h-17m9,-14h-9m9,-14h-9m9,-14h-9m9,-14h-9m17,-14h-17m9,-14h-9m9,-15h-9m9,-14h-9m9,-14h-9m17,-14h-17m9,-14h-9m9,-14h-9m9,-14h-9m9,-14h-9m17,-15h-17m9,-14h-9m9,-14h-9m9,-14h-9m9,-14h-9m17,-14h-17m9,-14h-9m9,-14h-9m9,-15h-9m9,-14h-9m17,-14h-17m9,-14h-9" style="stroke: black; stroke-width: 1;"></path>
       <g font-family="Arial" font-size="20" space="preserve">
        <text fill="black" text-anchor="end" dy=".4em" transform="translate(-3,592)">
         180
        </text>
        <text fill="black" text-anchor="end" dy=".4em" transform="translate(-3,522)">
         190
        </text>
        <text fill="black" text-anchor="end" dy=".4em" transform="translate(-3,451)">
         200
        </text>
        <text fill="black" text-anchor="end" dy=".4em" transform="translate(-3,380)">
         210
        </text>
        <text fill="black" text-anchor="end" dy=".4em" transform="translate(-3,310)">
         220
        </text>
        <text fill="black" text-anchor="end" dy=".4em" transform="translate(-3,239)">
         230
        </text>
        <text fill="black" text-anchor="end" dy=".4em" transform="translate(-3,168)">
         240
        </text>
        <text fill="black" text-anchor="end" dy=".4em" transform="translate(-3,98)">
         250
        </text>
        <text fill="black" text-anchor="end" dy=".4em" transform="translate(-3,27)">
         260
        </text>
       </g>
      </g>
     </g>
    </g>
    <g transform="translate(86,4)" font-family="Arial" font-size="25" space="preserve">
     <path d="M0,0h403v43h-403z" style="fill: none;"></path>
     <text fill="black" text-anchor="middle" dy=".4em" transform="translate(202,22)">
      Distribution drawn option E3
     </text>
    </g>
    <g transform="translate(449,51)" font-family="Arial" font-size="12" space="preserve">
     <path d="M0,0h115v125h-115z" style="fill: white; stroke: black; stroke-width: 1;"></path>
     <text fill="black" text-anchor="middle" dy=".4em" transform="translate(58,16)">
      he4
     </text>
     <text fill="black" text-anchor="start" dy=".4em" transform="translate(6,47)">
      Entries
     </text>
     <text fill="black" text-anchor="end" dy=".4em" transform="translate(109,47)">
      10000
     </text>
     <text fill="black" text-anchor="start" dy=".4em" transform="translate(6,78)">
      Mean
     </text>
     <text fill="black" text-anchor="end" dy=".4em" transform="translate(109,78)">
      -0.4081
     </text>
     <text fill="black" text-anchor="start" dy=".4em" transform="translate(6,109)">
      Std Dev
     </text>
     <text fill="black" text-anchor="end" dy=".4em" transform="translate(109,109)">
      0.1687
     </text>
     <path d="M0,31h115" style="stroke: black; stroke-width: 1;"></path>
    </g>
   </g>
  </svg>
 </g>
</svg>
